assets/img/braze_icons/archive.svg

<svg fill="none" height="24" viewBox="0 0 24 24" width="24" xmlns="http://www.w3.org/2000/svg"><g clip-rule="evenodd" fill="#801ed7" fill-rule="evenodd"><path d="m1 5c0-1.65685 1.34315-3 3-3h16c1.6569 0 3 1.34315 3 3s-1.3431 3-3 3h-16c-1.65685 0-3-1.34315-3-3z"/><path d="m4 10c-.55228 0-1 .4477-1 1v5.2413c-.00001.805-.00002 1.4693.04419 2.0105.04593.5621.14449 1.0788.39178 1.5642.3835.7526.99542 1.3645 1.74807 1.748.48533.2473 1.00204.3459 1.56413.3918.54119.0442 1.20555.0442 2.01051.0442h6.48262c.805 0 1.4693 0 2.0105-.0442.5621-.0459 1.0788-.1445 1.5642-.3918.7526-.3835 1.3645-.9954 1.748-1.748.2473-.4854.3459-1.0021.3918-1.5642.0442-.5412.0442-1.2055.0442-2.0105v-5.2413c0-.5523-.4477-1-1-1zm6 3c-.55228 0-1 .4477-1 1s.44772 1 1 1h4c.5523 0 1-.4477 1-1s-.4477-1-1-1z"/></g></svg>

<svg width="24" height="24" viewBox="0 0 24 24" fill="none" xmlns="http://www.w3.org/2000/svg">
<path fill-rule="evenodd" clip-rule="evenodd" d="M1 5C1 3.34315 2.34315 2 4 2H20C21.6569 2 23 3.34315 23 5C23 6.65685 21.6569 8 20 8H4C2.34315 8 1 6.65685 1 5Z" fill="#801ED7"/>
<path fill-rule="evenodd" clip-rule="evenodd" d="M4 10C3.44772 10 3 10.4477 3 11V16.2413C2.99999 17.0463 2.99998 17.7106 3.04419 18.2518C3.09012 18.8139 3.18868 19.3306 3.43597 19.816C3.81947 20.5686 4.43139 21.1805 5.18404 21.564C5.66937 21.8113 6.18608 21.9099 6.74817 21.9558C7.28936 22 7.95372 22 8.75868 22H15.2413C16.0463 22 16.7106 22 17.2518 21.9558C17.8139 21.9099 18.3306 21.8113 18.816 21.564C19.5686 21.1805 20.1805 20.5686 20.564 19.816C20.8113 19.3306 20.9099 18.8139 20.9558 18.2518C21 17.7106 21 17.0463 21 16.2413V11C21 10.4477 20.5523 10 20 10H4ZM10 13C9.44772 13 9 13.4477 9 14C9 14.5523 9.44772 15 10 15H14C14.5523 15 15 14.5523 15 14C15 13.4477 14.5523 13 14 13H10Z" fill="#801ED7"/>
</svg>
